app/renderer/assets/image/components/servo.svg

<?xml version="1.0" encoding="UTF-8"?>
<svg width="150px" height="150px" viewBox="0 0 150 150" version="1.1" xmlns="http://www.w3.org/2000/svg" xmlns:xlink="http://www.w3.org/1999/xlink">
    <!-- Generator: Sketch 46.1 (44463) - http://www.bohemiancoding.com/sketch -->
    <title>servo</title>
    <desc>Created with Sketch.</desc>
    <defs></defs>
    <g id="Page-1" stroke="none" stroke-width="1" fill="none" fill-rule="evenodd">
        <g id="servo">
            <path d="M118.032301,103.959645 C118.032301,103.959645 128.112946,104.902312 128.112946,120.927645" id="path7_2_" stroke="#373535" stroke-width="4.0200001"></path>
            <path d="M118.16671,100.862312 C124.215097,100.862312 132.010796,105.575645 132.010796,120.927645" id="path9_2_" stroke="#F24327" stroke-width="4.0200001"></path>
            <path d="M118.032301,97.8996453 C126.096817,97.8996453 136.043054,105.575645 136.043054,120.927645" id="path11_2_" stroke="#F7D442" stroke-width="4.0200001"></path>
            <polygon id="polygon13" fill="#6D6D6D" fill-rule="nonzero" points="27.9785376 63.694312 114.134452 63.694312 114.134452 124.024979 27.9785376 124.024979"></polygon>
            <polygon id="polygon19" fill="#848484" fill-rule="nonzero" points="27.9785376 63.694312 21.9301505 57.7689787 21.9301505 45.6489787 27.9785376 39.5889787 114.134452 39.5889787 120.04843 45.6489787 120.04843 57.7689787 114.134452 63.694312"></polygon>
            <polygon id="Shape" fill="#54585E" fill-rule="nonzero" points="21.9301505 57.7689787 21.9301505 85.7796453 21.9301505 90.358312 21.9301505 117.964979 27.9785376 124.024979 27.9785376 90.358312 27.9785376 85.7796453 27.9785376 63.694312"></polygon>
            <polygon id="Shape" fill="#464646" fill-rule="nonzero" points="114.134452 63.694312 114.134452 85.7796453 114.134452 89.550312 114.134452 124.024979 120.04843 117.964979 120.04843 89.550312 120.04843 85.7796453 120.04843 57.7689787"></polygon>
            <path d="M57.0107957,54.9409787 C50.0215484,58.846312 42.2258495,56.5569787 39.2688602,54.806312 C36.311871,52.9209787 18.8387527,38.1076453 16.4193978,36.626312 C14.1344516,35.1449787 14.2688602,33.1249787 14.2688602,30.0276453 C14.2688602,26.122312 16.1505806,32.8556453 20.1828387,34.7409787 C24.2150968,36.626312 60.639828,41.070312 60.639828,47.8036453 C60.639828,49.6889787 61.4462796,52.382312 57.0107957,54.9409787 Z" id="path29" fill="#CCCCCC" fill-rule="nonzero"></path>
            <path d="M57.0107957,52.786312 C50.2903656,57.230312 42.2258495,54.402312 39.2688602,52.6516453 C36.311871,50.766312 18.8387527,35.9529787 16.4193978,34.4716453 C14.1344516,32.990312 13.0591828,28.6809787 16.2849892,26.526312 C19.5107957,24.3716453 23.9462796,25.718312 27.9785376,27.4689787 C32.0107957,29.354312 48.811871,36.3569787 54.4570323,39.7236453 C60.2366022,43.2249787 63.7312258,48.342312 57.0107957,52.786312 Z M21.7957419,32.586312 C24.6183226,32.586312 26.9032688,31.5089787 26.9032688,30.0276453 C26.9032688,28.6809787 24.6183226,27.4689787 21.7957419,27.4689787 C18.9731613,27.4689787 16.6882151,28.546312 16.6882151,30.0276453 C16.6882151,31.5089787 18.9731613,32.586312 21.7957419,32.586312 Z" id="path31" fill="#FFFFFF" fill-rule="nonzero"></path>
            <path d="M26.7688602,30.566312 C26.2312258,29.4889787 24.2150968,28.546312 21.7957419,28.546312 C19.3763871,28.546312 17.2258495,29.354312 16.6882151,30.566312 L16.6882151,30.566312 C16.5538065,30.4316453 16.5538065,30.162312 16.5538065,30.0276453 C16.5538065,28.6809787 18.8387527,27.4689787 21.6613333,27.4689787 C24.483914,27.4689787 26.7688602,28.546312 26.7688602,30.0276453 C26.9032688,30.2969787 26.9032688,30.4316453 26.7688602,30.566312 L26.7688602,30.566312 Z" id="path35" fill="#CCCCCC" fill-rule="nonzero"></path>
            <ellipse id="ellipse39" fill="#999999" fill-rule="nonzero" cx="48.0054194" cy="46.5916453" rx="8.60215054" ry="4.848"></ellipse>
            <g id="g41" transform="translate(39.134452, 45.244979)" fill-rule="nonzero" fill="#666666">
                <path d="M0.403225806,1.212 C1.20967742,3.232 4.70430108,4.848 8.73655914,4.848 C12.7688172,4.848 16.3978495,3.36666667 17.2043011,1.212 L17.2043011,1.212 C17.3387097,1.48133333 17.4731183,1.88533333 17.4731183,2.15466667 C17.4731183,4.71333333 13.5752688,6.73333333 8.87096774,6.73333333 C4.16666667,6.73333333 0.268817204,4.71333333 0.268817204,2.15466667 C0.268817204,1.88533333 0.268817204,1.616 0.403225806,1.212 L0.403225806,1.212 Z" id="path43"></path>
            </g>
            <polygon id="path47" fill="#FFCC34" fill-rule="nonzero" points="69.9140215 48.8809787 69.9140215 50.0929787 73.5430538 50.0929787 73.5430538 51.3049787 74.7527312 51.3049787 74.7527312 52.5169787 73.5430538 52.5169787 73.5430538 53.7289787 67.4946667 53.7289787 67.4946667 52.5169787 72.3333763 52.5169787 72.3333763 51.3049787 68.7043441 51.3049787 68.7043441 50.0929787 67.4946667 50.0929787 67.4946667 48.8809787 68.7043441 48.8809787 68.7043441 47.6689787 74.7527312 47.6689787 74.7527312 48.8809787"></polygon>
            <polygon id="path49" fill="#FFCC34" fill-rule="nonzero" points="83.3548817 47.6689787 83.3548817 48.8809787 78.516172 48.8809787 78.516172 50.0929787 82.1452043 50.0929787 82.1452043 51.3049787 78.516172 51.3049787 78.516172 52.5169787 83.3548817 52.5169787 83.3548817 53.7289787 76.0968172 53.7289787 76.0968172 47.6689787 83.3548817 47.6689787"></polygon>
            <path d="M90.6129462,48.8809787 L91.8226237,48.8809787 L91.8226237,51.3049787 L90.6129462,51.3049787 L90.6129462,52.5169787 L91.8226237,52.5169787 L91.8226237,53.7289787 L88.1935914,53.7289787 L88.1935914,52.5169787 L86.983914,52.5169787 L86.983914,53.7289787 L84.5645591,53.7289787 L84.5645591,47.6689787 L90.6129462,47.6689787 L90.6129462,48.8809787 L90.6129462,48.8809787 Z M89.4032688,48.8809787 L86.983914,48.8809787 L86.983914,51.3049787 L89.4032688,51.3049787 L89.4032688,48.8809787 Z" id="path51" fill="#FFCC34" fill-rule="nonzero"></path>
            <polygon id="path53" fill="#FFCC34" fill-rule="nonzero" points="100.424774 47.6689787 100.424774 50.0929787 99.2150968 50.0929787 99.2150968 52.5169787 98.0054194 52.5169787 98.0054194 53.7289787 95.5860645 53.7289787 95.5860645 52.5169787 94.3763871 52.5169787 94.3763871 50.0929787 93.1667097 50.0929787 93.1667097 47.6689787 95.5860645 47.6689787 95.5860645 50.0929787 98.0054194 50.0929787 98.0054194 47.6689787"></polygon>
            <path d="M102.844129,53.7289787 L102.844129,52.5169787 L101.634452,52.5169787 L101.634452,48.8809787 L102.844129,48.8809787 L102.844129,47.6689787 L107.682839,47.6689787 L107.682839,48.8809787 L108.892516,48.8809787 L108.892516,52.5169787 L107.682839,52.5169787 L107.682839,53.7289787 L102.844129,53.7289787 L102.844129,53.7289787 Z M106.473161,52.5169787 L106.473161,48.8809787 L104.053806,48.8809787 L104.053806,52.5169787 L106.473161,52.5169787 Z" id="path55" fill="#FFCC34" fill-rule="nonzero"></path>
        </g>
    </g>
</svg>

<svg width="150" height="150" xmlns="http://www.w3.org/2000/svg"><g fill="none" fill-rule="evenodd"><path d="M118.032 103.96s10.08.942 10.08 16.968" stroke="#373535" stroke-width="4.02"/><path d="M118.167 100.862c6.048 0 13.844 4.714 13.844 20.066" stroke="#F24327" stroke-width="4.02"/><path d="M118.032 97.9c8.065 0 18.011 7.676 18.011 23.028" stroke="#F7D442" stroke-width="4.02"/><path fill="#6D6D6D" fill-rule="nonzero" d="M27.979 63.694h86.155v60.331H27.98z"/><path fill="#848484" fill-rule="nonzero" d="M27.979 63.694L21.93 57.77V45.65l6.049-6.06h86.155l5.914 6.06v12.12l-5.914 5.925z"/><path fill="#54585E" fill-rule="nonzero" d="M21.93 57.769v60.196l6.049 6.06V63.694z"/><path fill="#464646" fill-rule="nonzero" d="M114.134 63.694v60.331l5.914-6.06V57.769z"/><path d="M57.01 54.941c-6.988 3.905-14.784 1.616-17.741-.135-2.957-1.885-20.43-16.698-22.85-18.18-2.285-1.481-2.15-3.501-2.15-6.598 0-3.906 1.882 2.828 5.914 4.713 4.032 1.885 40.457 6.33 40.457 13.063 0 1.885.806 4.578-3.63 7.137z" fill="#CCC" fill-rule="nonzero"/><path d="M57.01 52.786c-6.72 4.444-14.784 1.616-17.741-.134-2.957-1.886-20.43-16.699-22.85-18.18-2.285-1.482-3.36-5.791-.134-7.946 3.226-2.154 7.661-.808 11.694.943 4.032 1.885 20.833 8.888 26.478 12.255 5.78 3.501 9.274 8.618 2.554 13.062zm-35.214-20.2c2.822 0 5.107-1.077 5.107-2.558 0-1.347-2.285-2.559-5.107-2.559-2.823 0-5.108 1.077-5.108 2.559 0 1.481 2.285 2.558 5.108 2.558z" fill="#FFF" fill-rule="nonzero"/><path d="M26.769 30.566c-.538-1.077-2.554-2.02-4.973-2.02-2.42 0-4.57.808-5.108 2.02-.134-.134-.134-.404-.134-.538 0-1.347 2.285-2.559 5.107-2.559 2.823 0 5.108 1.077 5.108 2.559.134.269.134.404 0 .538z" fill="#CCC" fill-rule="nonzero"/><ellipse fill="#999" fill-rule="nonzero" cx="48.005" cy="46.592" rx="8.602" ry="4.848"/><path d="M39.538 46.457c.806 2.02 4.3 3.636 8.333 3.636 4.032 0 7.661-1.481 8.468-3.636.134.27.269.673.269.943 0 2.558-3.898 4.578-8.603 4.578-4.704 0-8.602-2.02-8.602-4.578 0-.27 0-.539.135-.943z" fill-rule="nonzero" fill="#666"/><path fill="#FFCC34" fill-rule="nonzero" d="M69.914 48.881v1.212h3.63v1.212h1.209v1.212h-1.21v1.212h-6.048v-1.212h4.838v-1.212h-3.629v-1.212h-1.21v-1.212h1.21v-1.212h6.049v1.212zm13.441-1.212v1.212h-4.839v1.212h3.63v1.212h-3.63v1.212h4.839v1.212h-7.258v-6.06h7.258zm7.258 1.212h1.21v2.424h-1.21v1.212h1.21v1.212h-3.63v-1.212h-1.21v1.212h-2.418v-6.06h6.048v1.212zm-1.21 0h-2.42v2.424h2.42v-2.424zm11.022-1.212v2.424h-1.21v2.424h-1.21v1.212h-2.419v-1.212h-1.21v-2.424h-1.21v-2.424h2.42v2.424h2.42v-2.424zm2.419 6.06v-1.212h-1.21v-3.636h1.21v-1.212h4.839v1.212h1.21v3.636h-1.21v1.212h-4.839zm3.63-1.212v-3.636h-2.42v3.636h2.42z"/></g></svg>
